textures/luts/3smax.3dl
#Created by: Adobe Photoshop Export Color Lookup Plugin
#Description: 3sstrip
0 205 409 614 818 1023
0 0 0
0 0 1017
0 0 1880
0 0 2706
0 0 3472
0 0 4095
0 1017 0
0 842 758
0 666 1728
0 653 2669
0 655 3479
0 653 4095
0 1893 0
0 1781 488
0 1421 1187
0 1390 2147
0 1391 3244
0 1381 4095
0 2694 0
0 2682 465
0 2331 1138
0 2250 2023
0 2250 3095
0 2242 4095
0 3469 0
0 3474 464
0 3319 1135
0 3230 2024
0 3221 3095
0 3227 4095
0 4095 0
0 4095 461
0 4095 1130
0 4095 2026
0 4095 3102
0 4095 4095
1022 0 0
848 0 848
665 0 1782
647 0 2679
651 0 3476
657 0 4095
759 846 0
995 1001 996
774 773 1890
656 654 2698
657 658 3476
652 654 4095
486 1781 0
643 1885 642
732 1631 1499
716 1391 2531
744 1387 3454
751 1391 4095
470 2684 0
474 2699 474
595 2588 1138
648 2255 2029
779 2249 3138
853 2248 4095
466 3481 0
471 3476 471
612 3460 1135
728 3253 2025
853 3225 3099
952 3224 4095
465 4095 0
472 4095 474
615 4095 1134
771 4095 2019
918 4095 3097
1018 4095 4095
1893 0 0
1775 0 663
1421 0 1421
1389 0 2333
1391 0 3324
1391 0 4095
1730 665 0
1886 771 770
1631 787 1629
1391 726 2588
1388 749 3463
1386 749 4095
1185 1419 0
1499 1626 732
1842 1849 1841
1477 1477 2697
1393 1393 3476
1395 1395 4095
1140 2333 0
1139 2586 591
1277 2698 1276
1411 2398 2244
1504 2245 3323
1569 2251 4095
1135 3318 0
1140 3464 612
1150 3478 1150
1372 3377 2022
1565 3226 3099
1748 3222 4095
1137 4095 0
1133 4095 615
1141 4095 1138
1407 4095 2018
1680 4095 3099
1894 4095 4095
2694 0 0
2686 0 653
2333 0 1391
2250 0 2251
2245 0 3227
2253 0 4095
2669 648 0
2698 657 657
2587 725 1390
2252 717 2251
2251 803 3253
2249 854 4095
2148 1391 0
2527 1387 711
2698 1480 1480
2401 1506 2400
2247 1523 3374
2254 1573 4095
2013 2241 0
2029 2254 648
2242 2397 1409
2646 2659 2646
2274 2274 3475
2261 2261 4095
2024 3229 0
2020 3251 721
2025 3379 1373
2061 3475 2061
2295 3263 3155
2499 3225 4095
2025 4095 0
2020 4095 768
2026 4095 1411
2037 4095 2037
2402 4095 3101
2697 4095 4095
3476 0 0
3474 0 653
3321 0 1392
3221 0 2247
3229 0 3229
3225 0 4095
3476 651 0
3476 656 657
3464 748 1387
3252 803 2251
3226 886 3226
3226 948 4095
3244 1390 0
3454 1389 747
3474 1391 1390
3377 1528 2249
3227 1625 3225
3226 1753 4095
3099 2252 0
3138 2247 780
3324 2248 1507
3473 2273 2273
3266 2372 3264
3219 2495 4095
3098 3224 0
3097 3225 856
3097 3225 1561
3156 3265 2295
3374 3397 3374
3241 3239 4095
3095 4095 0
3099 4095 916
3099 4095 1684
3099 4095 2400
3121 4095 3121
3476 4095 4095
4095 0 0
4095 0 651
4095 0 1393
4095 0 2251
4095 0 3224
4095 0 4095
4095 651 0
4095 656 656
4095 747 1386
4095 849 2248
4095 951 3226
4095 1018 4095
4095 1393 0
4095 1389 749
4095 1396 1396
4095 1569 2251
4095 1746 3219
4095 1884 4095
4095 2242 0
4095 2243 849
4095 2246 1565
4095 2260 2259
4095 2505 3227
4095 2694 4095
4095 3224 0
4095 3228 953
4095 3226 1750
4095 3223 2500
4095 3237 3236
4095 3476 4095
4095 4095 0
4095 4095 1017
4095 4095 1883
4095 4095 2707
4095 4095 3479
4095 4095 4095
