textures/luts/3smax.3dl
#Created by: Adobe Photoshop Export Color Lookup Plugin
#Description: 3sstrip
0 68 136 205 273 341 409 477 546 614 682 750 818 887 955 1023
0 0 0
0 0 354
0 0 708
0 0 1017
0 0 1317
0 0 1602
0 0 1880
0 0 2158
0 0 2437
0 0 2706
0 0 2964
0 0 3220
0 0 3472
0 0 3715
0 0 3905
0 0 4095
0 354 0
0 313 295
0 313 649
0 254 990
0 244 1296
0 221 1599
0 212 1884
0 212 2157
0 212 2430
0 213 2703
0 214 2964
0 214 3221
0 214 3477
0 213 3720
0 212 3905
0 212 4095
0 708 0
0 667 295
0 627 590
0 567 931
0 498 1269
0 465 1577
0 434 1881
0 425 2161
0 425 2429
0 425 2696
0 427 2960
0 428 3221
0 427 3479
0 427 3725
0 426 3910
0 425 4095
0 1017 0
0 1000 205
0 959 500
0 842 758
0 773 1096
0 703 1422
0 666 1728
0 653 2077
0 653 2378
0 653 2669
0 654 2957
0 655 3220
0 655 3479
0 654 3725
0 654 3910
0 653 4095
0 1317 0
0 1305 190
0 1288 395
0 1171 653
0 1042 905
0 972 1230
0 902 1550
0 883 1902
0 883 2286
0 883 2609
0 884 2930
0 884 3217
0 884 3477
0 884 3725
0 884 3910
0 884 4095
0 1607 0
0 1601 153
0 1589 343
0 1485 548
0 1355 799
0 1233 1047
0 1163 1367
0 1133 1673
0 1133 2045
0 1132 2414
0 1132 2742
0 1133 3085
0 1134 3404
0 1133 3667
0 1130 3910
0 1130 4095
0 1893 0
0 1889 139
0 1883 292
0 1781 488
0 1662 694
0 1540 941
0 1421 1187
0 1391 1494
0 1391 1790
0 1390 2147
0 1387 2496
0 1388 2847
0 1391 3244
0 1392 3566
0 1385 3852
0 1381 4095
0 2166 0
0 2167 138
0 2163 277
0 2104 465
0 1987 663
0 1837 895
0 1717 1140
0 1666 1416
0 1666 1712
0 1666 2026
0 1664 2373
0 1661 2733
0 1663 3127
0 1666 3512
0 1660 3809
0 1653 4095
0 2431 0
0 2434 138
0 2435 277
0 2396 464
0 2331 661
0 2173 893
0 2006 1138
0 1954 1413
0 1953 1710
0 1953 2024
0 1954 2361
0 1952 2719
0 1950 3104
0 1951 3486
0 1947 3798
0 1941 4095
0 2694 0
0 2697 138
0 2700 276
0 2682 465
0 2638 661
0 2506 893
0 2331 1138
0 2254 1412
0 2253 1709
0 2250 2023
0 2251 2360
0 2251 2710
0 2250 3095
0 2248 3471
0 2246 3783
0 2242 4095
0 2954 0
0 2956 138
0 2959 276
0 2961 465
0 2943 662
0 2815 894
0 2650 1141
0 2572 1415
0 2567 1710
0 2564 2024
0 2559 2361
0 2560 2711
0 2560 3093
0 2558 3468
0 2560 3782
0 2558 4095
0 3213 0
0 3217 139
0 3218 276
0 3218 464
0 3220 662
0 3132 894
0 2971 1141
0 2897 1416
0 2892 1711
0 2888 2024
0 2883 2361
0 2878 2712
0 2878 3094
0 2878 3467
0 2881 3781
0 2883 4095
0 3469 0
0 3475 141
0 3478 280
0 3474 464
0 3473 659
0 3426 890
0 3319 1135
0 3243 1412
0 3233 1711
0 3230 2024
0 3228 2361
0 3223 2712
0 3221 3095
0 3222 3468
0 3225 3781
0 3227 4095
0 3715 0
0 3721 141
0 3727 282
0 3724 467
0 3719 658
0 3680 887
0 3613 1131
0 3580 1408
0 3568 1708
0 3560 2025
0 3559 2362
0 3558 2712
0 3556 3095
0 3554 3469
0 3557 3782
0 3561 4095
0 3905 0
0 3905 138
0 3911 279
0 3911 464
0 3908 656
0 3906 886
0 3868 1131
0 3840 1407
0 3835 1707
0 3828 2026
0 3827 2368
0 3827 2717
0 3826 3096
0 3824 3470
0 3824 3782
0 3828 4095
0 4095 0
0 4095 138
0 4095 275
0 4095 461
0 4095 654
0 4095 885
0 4095 1130
0 4095 1407
0 4095 1707
0 4095 2026
0 4095 2369
0 4095 2723
0 4095 3102
0 4095 3471
0 4095 3783
0 4095 4095
358 0 0
317 0 317
317 0 671
255 0 1001
245 0 1306
221 0 1601
211 0 1884
210 0 2156
209 0 2430
210 0 2702
212 0 2962
212 0 3220
212 0 3477
213 0 3720
216 0 3905
216 0 4095
295 315 0
347 349 347
347 349 701
294 294 1016
285 285 1318
241 240 1606
223 222 1886
218 216 2157
214 212 2430
214 213 2703
213 214 2965
214 214 3222
215 215 3475
214 215 3718
212 214 3905
212 214 4095
295 669 0
347 702 347
347 662 642
294 607 957
285 539 1291
241 484 1585
223 443 1883
218 429 2162
214 425 2429
214 425 2697
213 427 2961
214 428 3222
215 429 3477
214 428 3723
212 428 3910
212 427 4095
202 1001 0
265 1017 265
265 976 560
284 914 864
275 845 1198
258 739 1554
246 690 1863
242 661 2157
238 651 2430
238 652 2695
237 653 2959
237 654 3220
236 655 3477
236 655 3724
236 654 3910
236 653 4095
186 1306 0
252 1319 252
252 1302 457
270 1239 761
273 1119 1020
256 1013 1376
249 928 1708
245 894 2004
242 882 2346
242 882 2644
241 882 2932
240 883 3218
240 884 3475
240 884 3724
240 884 3910
240 884 4095
154 1604 0
181 1605 179
181 1592 369
218 1571 602
221 1451 861
225 1296 1139
218 1212 1472
231 1149 1814
232 1134 2166
244 1133 2556
252 1133 2882
255 1133 3198
259 1134 3475
259 1134 3725
259 1134 3910
259 1134 4095
141 1893 0
152 1889 150
152 1882 304
194 1869 525
201 1765 734
204 1610 1012
206 1478 1270
218 1416 1613
228 1392 1936
240 1391 2313
256 1389 2690
259 1389 3014
266 1390 3345
266 1392 3653
267 1392 3852
267 1388 4095
141 2168 0
147 2166 146
147 2163 285
184 2159 479
191 2057 681
200 1928 917
201 1796 1175
209 1690 1451
218 1666 1775
230 1666 2089
247 1664 2458
256 1662 2817
269 1664 3170
272 1667 3555
281 1665 3809
281 1658 4095
141 2434 0
143 2434 143
143 2434 281
178 2435 467
184 2377 662
194 2253 891
198 2100 1136
205 1995 1412
211 1953 1710
223 1953 2025
240 1953 2363
249 1951 2721
271 1951 3104
274 1952 3486
292 1950 3798
292 1945 4095
141 2698 0
142 2697 143
142 2700 281
177 2701 466
183 2663 661
202 2602 892
206 2441 1136
214 2294 1411
219 2252 1709
232 2251 2024
249 2251 2363
258 2252 2713
281 2252 3096
284 2250 3471
302 2248 3783
302 2244 4095
140 2960 0
142 2957 142
142 2960 280
175 2960 465
181 2941 661
207 2907 893
218 2780 1139
225 2627 1414
230 2566 1710
243 2565 2025
261 2562 2363
270 2563 2713
293 2563 3096
296 2561 3471
315 2561 3782
315 2558 4095
140 3219 0
142 3216 142
142 3218 280
175 3218 465
181 3219 662
208 3207 893
218 3084 1140
230 2952 1416
236 2891 1711
249 2887 2025
266 2884 2364
276 2881 2714
299 2881 3096
303 2881 3469
322 2880 3781
322 2882 4095
140 3474 0
142 3472 141
142 3475 280
175 3476 466
180 3476 661
209 3476 891
220 3388 1136
236 3272 1413
249 3233 1712
262 3229 2026
280 3227 2364
290 3223 2714
314 3222 3097
318 3222 3469
341 3221 3781
341 3224 4095
140 3720 0
142 3718 142
142 3724 283
175 3725 469
181 3721 661
209 3720 889
220 3672 1133
238 3609 1408
250 3567 1708
264 3560 2025
282 3558 2363
292 3557 2714
317 3557 3097
320 3555 3470
342 3554 3782
342 3558 4095
141 3905 0
143 3905 145
143 3911 286
177 3911 470
182 3908 662
210 3906 890
221 3868 1133
243 3840 1407
259 3835 1705
275 3828 2022
296 3827 2363
306 3827 2713
332 3826 3097
335 3824 3471
354 3824 3782
354 3828 4095
141 4095 0
143 4095 145
143 4095 283
177 4095 467
182 4095 659
210 4095 888
221 4095 1132
243 4095 1407
259 4095 1704
275 4095 2022
296 4095 2364
306 4095 2720
332 4095 3103
335 4095 3472
354 4095 3783
354 4095 4095
716 0 0
675 0 317
634 0 634
572 0 964
500 0 1290
466 0 1590
432 0 1883
421 0 2160
419 0 2429
419 0 2696
423 0 2958
425 0 3218
425 0 3477
425 0 3725
429 0 3910
432 0 4095
653 315 0
705 349 347
663 349 663
611 294 979
540 285 1302
486 240 1595
444 222 1885
429 216 2161
424 212 2429
423 213 2697
424 214 2961
426 214 3220
427 215 3476
427 215 3723
425 214 3910
428 214 4095
589 630 0
641 664 347
693 697 693
641 643 1009
579 579 1317
526 525 1607
464 462 1890
441 438 2163
432 429 2429
427 425 2697
427 427 2962
427 429 3223
428 429 3477
429 429 3721
427 429 3908
425 428 4095
497 962 0
560 978 265
612 1011 612
630 949 916
569 885 1224
543 780 1576
487 709 1871
465 670 2159
456 655 2431
451 652 2695
450 653 2959
450 654 3222
450 656 3477
451 656 3722
451 656 3909
449 655 4095
388 1290 0
453 1303 252
517 1319 517
535 1256 821
557 1190 1126
531 1085 1477
507 964 1840
491 917 2140
484 890 2426
480 881 2696
478 881 2958
477 882 3220
476 884 3476
476 884 3722
476 884 3909
476 884 4095
341 1592 0
367 1593 179
432 1606 431
470 1585 663
492 1519 968
498 1373 1254
475 1252 1617
480 1176 1972
477 1144 2268
486 1131 2616
493 1131 2917
495 1132 3199
499 1133 3476
499 1134 3723
499 1134 3909
499 1134 4095
295 1889 0
306 1885 150
333 1886 329
374 1873 550
419 1851 788
426 1706 1074
431 1541 1363
437 1464 1717
458 1408 2076
472 1392 2435
500 1390 2832
511 1390 3153
521 1391 3457
525 1392 3724
525 1392 3909
526 1393 4095
283 2168 0
288 2166 146
299 2162 296
336 2159 491
385 2145 717
400 2031 957
406 1866 1246
415 1747 1535
436 1691 1894
458 1667 2235
487 1665 2624
512 1664 3011
528 1665 3337
538 1666 3656
547 1665 3895
548 1665 4095
283 2436 0
284 2436 143
289 2434 289
325 2435 474
368 2432 677
385 2323 910
397 2192 1158
406 2073 1447
419 1978 1746
441 1953 2088
470 1952 2427
496 1951 2805
527 1952 3188
543 1952 3529
564 1951 3841
573 1949 4095
282 2702 0
284 2700 143
285 2700 285
319 2701 471
361 2703 663
386 2648 893
400 2521 1135
411 2388 1409
424 2293 1708
443 2251 2025
472 2250 2364
498 2250 2715
529 2251 3098
555 2250 3471
576 2249 3783
594 2247 4095
280 2965 0
283 2962 142
285 2960 285
318 2960 470
358 2960 662
390 2933 894
420 2876 1138
431 2737 1412
444 2606 1709
463 2564 2025
493 2563 2364
519 2563 2716
551 2564 3098
576 2563 3472
598 2562 3783
616 2560 4095
279 3225 0
282 3222 142
284 3219 284
317 3219 469
356 3218 662
389 3206 892
425 3176 1138
448 3082 1414
461 2946 1711
479 2886 2025
510 2885 2364
537 2884 2716
569 2884 3099
595 2884 3472
618 2883 3783
637 2882 4095
280 3480 0
282 3477 141
284 3474 283
317 3476 469
355 3476 662
389 3475 891
428 3463 1135
455 3385 1412
479 3288 1711
498 3228 2026
528 3226 2365
556 3225 2716
590 3225 3099
617 3225 3471
643 3224 3783
662 3223 4095
280 3725 0
282 3723 142
284 3720 283
317 3722 469
355 3723 662
389 3722 891
429 3722 1134
458 3677 1409
487 3596 1709
513 3559 2026
544 3557 2365
572 3556 2717
606 3556 3099
634 3556 3471
660 3555 3783
683 3554 4095
282 3910 0
283 3910 145
285 3907 287
319 3908 471
357 3909 664
391 3908 892
430 3908 1135
463 3899 1408
497 3864 1705
525 3827 2023
560 3827 2363
588 3826 2715
624 3826 3100
652 3826 3472
674 3826 3783
696 3825 4095
283 4095 0
284 4095 145
286 4095 290
320 4095 474
359 4095 665
392 4095 893
431 4095 1136
464 4095 1409
501 4095 1704
533 4095 2019
570 4095 2360
602 4095 2714
638 4095 3099
667 4095 3473
689 4095 3784
708 4095 4095
1022 0 0
1006 0 255
965 0 572
848 0 848
776 0 1174
704 0 1487
665 0 1782
649 0 2105
646 0 2395
647 0 2679
651 0 2958
652 0 3219
651 0 3476
652 0 3725
654 0 3910
657 0 4095
995 253 0
1020 297 295
979 297 612
918 299 918
848 290 1242
740 263 1574
690 248 1871
661 242 2161
650 238 2434
649 238 2698
651 238 2959
652 238 3219
651 237 3475
651 237 3723
651 237 3910
654 237 4095
932 568 0
957 612 295
1009 645 642
948 647 948
886 584 1256
780 548 1586
710 488 1876
672 464 2163
658 454 2435
654 450 2698
654 451 2960
653 452 3222
652 451 3476
653 452 3722
652 452 3909
651 451 4095
759 846 0
864 916 282
916 950 629
995 1001 996
934 938 1305
842 842 1605
774 773 1890
694 693 2167
661 660 2434
656 654 2698
656 656 2961
656 657 3223
657 658 3476
658 658 3721
654 654 3908
652 654 4095
650 1174 0
757 1241 269
821 1257 534
900 1309 901
922 1242 1207
830 1147 1507
795 1028 1860
720 940 2148
688 894 2429
684 883 2699
684 884 2960
683 885 3220
683 886 3475
683 886 3721
680 883 3908
679 883 4095
540 1483 0
597 1575 220
663 1588 471
752 1603 753
774 1537 1058
809 1457 1383
773 1338 1736
747 1202 2108
725 1148 2405
722 1131 2690
723 1130 2958
721 1130 3218
720 1130 3474
720 1131 3720
721 1133 3909
721 1133 4095
486 1781 0
525 1876 195
551 1876 375
643 1885 642
688 1863 880
722 1784 1204
732 1631 1499
706 1495 1871
714 1412 2235
716 1391 2531
733 1388 2879
740 1387 3178
744 1387 3454
748 1388 3721
750 1391 3909
751 1391 4095
468 2108 0
482 2162 182
492 2158 332
524 2160 522
573 2146 748
629 2124 1000
639 1971 1295
639 1787 1593
646 1705 1958
686 1668 2324
712 1664 2686
751 1663 3092
773 1663 3416
783 1664 3708
788 1666 3910
789 1667 4095
469 2400 0
468 2433 174
473 2432 320
480 2431 479
