textures/luts/test.3dl
#Created by: Adobe Photoshop Export Color Lookup Plugin
#Description: test
0 33 66 99 132 165 198 231 264 297 330 363 396 429 462 495 528 561 594 627 660 693 726 759 792 825 858 891 924 957 990 1023
0 273 482
0 273 507
0 274 535
0 282 609
0 288 680
0 280 731
0 273 785
0 273 860
0 267 932
0 242 999
0 233 1063
0 258 1120
0 276 1182
0 284 1248
0 296 1307
0 313 1357
0 329 1410
0 346 1467
0 367 1534
0 391 1609
0 406 1673
0 415 1731
0 446 1801
0 487 1876
0 510 1932
0 527 1981
0 543 2058
0 560 2141
0 598 2232
0 639 2323
0 673 2399
0 707 2473
0 323 466
0 306 490
0 306 519
0 307 601
0 313 671
0 304 714
0 301 772
0 314 860
0 314 928
0 308 982
0 291 1051
0 299 1120
0 321 1175
0 334 1232
0 342 1298
0 354 1357
0 371 1415
0 388 1476
0 399 1529
0 417 1592
0 442 1678
0 457 1748
0 465 1795
0 496 1859
0 531 1940
0 552 1998
0 581 2075
0 601 2158
0 625 2234
0 665 2323
0 698 2422
0 732 2498
0 372 448
0 357 474
0 341 502
0 341 584
0 341 665
0 332 707
0 327 756
0 344 846
0 357 928
0 357 978
0 357 1035
0 357 1110
0 363 1176
0 380 1227
0 392 1282
0 400 1348
0 413 1415
0 430 1481
0 442 1539
0 451 1588
0 468 1662
0 493 1753
0 508 1813
0 516 1855
0 542 1926
0 575 2009
0 608 2091
0 641 2174
0 668 2251
0 693 2326
0 725 2423
0 758 2523
0 422 423
0 422 465
0 408 494
0 408 560
0 408 643
0 407 732
0 399 775
0 394 830
0 409 915
0 415 978
0 418 1033
0 424 1101
0 427 1176
0 438 1243
0 447 1289
0 450 1340
0 463 1414
0 479 1489
0 496 1555
0 508 1613
0 522 1668
0 543 1744
0 568 1830
0 582 1888
0 597 1954
0 624 2034
0 658 2103
0 691 2182
0 724 2280
0 751 2359
0 776 2449
0 808 2547
0 474 399
0 474 445
0 474 489
0 475 556
0 474 620
0 474 711
0 474 799
0 466 848
0 462 901
0 470 968
0 478 1035
0 487 1101
0 494 1169
0 502 1244
0 508 1306
0 508 1347
0 515 1406
0 531 1488
0 549 1563
0 565 1629
0 582 1694
0 598 1752
0 619 1825
0 644 1908
0 664 1987
0 680 2062
0 711 2131
0 744 2197
0 775 2290
0 808 2390
0 836 2481
0 861 2572
0 531 382
0 531 457
0 532 506
0 540 580
0 540 644
0 531 695
0 533 784
0 540 865
0 536 917
0 544 976
0 553 1045
0 561 1118
0 566 1181
0 568 1244
0 576 1311
0 582 1364
0 586 1413
0 597 1480
0 619 1562
0 640 1638
0 657 1714
0 673 1785
0 690 1849
0 711 1924
0 736 2014
0 755 2095
0 785 2169
0 819 2238
0 837 2319
0 866 2415
0 908 2507
0 936 2598
0 592 371
0 594 439
0 595 516
0 603 593
0 610 668
0 602 719
0 594 768
0 602 850
0 611 935
0 619 993
0 629 1055
0 637 1129
0 645 1201
0 645 1259
0 647 1316
0 656 1374
0 665 1436
0 674 1494
0 691 1563
0 716 1646
0 738 1731
0 754 1814
0 769 1886
0 786 1952
0 807 2033
0 832 2125
0 862 2206
0 895 2280
0 917 2364
0 933 2447
0 969 2535
0 1010 2626
0 667 379
0 676 421
0 678 491
0 686 590
0 693 668
0 693 743
0 685 793
0 677 834
0 685 921
0 694 1018
0 705 1079
0 720 1146
0 732 1221
0 745 1292
0 745 1347
0 747 1399
0 759 1469
0 773 1543
0 791 1610
0 816 1687
0 841 1775
0 862 1863
0 873 1935
0 886 2002
0 902 2074
0 923 2158
0 948 2249
0 978 2330
0 1011 2419
0 1033 2505
0 1049 2580
0 1085 2667
0 755 396
0 759 435
0 768 482
0 778 582
0 785 678
0 785 753
0 785 827
0 777 869
0 777 919
0 786 1019
0 792 1108
0 809 1174
0 825 1248
0 842 1323
0 851 1389
0 851 1438
0 859 1500
0 876 1582
0 895 1664
0 919 1738
0 948 1825
0 973 1917
0 985 1994
0 994 2060
0 1008 2126
0 1025 2201
0 1048 2291
0 1073 2382
0 1105 2471
0 1138 2562
0 1158 2638
0 1174 2713
0 880 438
0 871 471
0 875 514
0 892 622
0 901 720
0 901 795
0 901 868
0 901 935
0 902 986
0 927 1060
0 932 1149
0 933 1216
0 950 1292
0 967 1381
0 976 1448
0 976 1505
0 984 1562
0 1000 1631
0 1017 1719
0 1036 1805
0 1070 1895
0 1106 1992
0 1114 2072
0 1118 2143
0 1133 2197
0 1149 2258
0 1173 2353
0 1197 2448
0 1229 2533
0 1262 2621
0 1288 2696
0 1307 2771
0 1007 487
0 1009 526
0 1001 564
0 1016 672
0 1030 775
0 1028 850
0 1028 926
0 1028 994
0 1030 1059
0 1054 1132
0 1073 1207
0 1073 1273
0 1080 1336
0 1096 1427
0 1108 1511
0 1108 1570
0 1116 1637
0 1133 1702
0 1146 1774
0 1163 1865
0 1184 1954
0 1225 2053
0 1249 2147
0 1249 2221
0 1262 2285
0 1279 2334
0 1308 2425
0 1333 2524
0 1357 2604
0 1390 2687
0 1415 2768
0 1440 2842
0 1139 553
0 1164 603
0 1167 647
0 1176 754
0 1187 858
0 1179 933
0 1177 1009
0 1177 1091
0 1179 1158
0 1188 1217
0 1206 1290
0 1214 1364
0 1221 1425
0 1237 1477
0 1250 1564
0 1257 1644
0 1266 1715
0 1282 1794
0 1294 1859
0 1304 1931
0 1315 2012
0 1333 2095
0 1369 2200
0 1390 2296
0 1403 2370
0 1420 2434
0 1457 2524
0 1490 2624
0 1501 2694
0 1522 2770
0 1548 2861
0 1572 2942
0 1281 626
0 1303 670
0 1327 719
0 1335 802
0 1343 915
0 1337 1009
0 1331 1084
0 1333 1165
0 1335 1246
0 1343 1306
0 1354 1373
0 1363 1447
0 1368 1519
0 1385 1569
0 1398 1631
0 1406 1713
0 1421 1796
0 1438 1877
0 1456 1960
0 1464 2026
0 1463 2091
0 1471 2166
0 1503 2264
0 1536 2372
0 1554 2461
0 1571 2536
0 1604 2614
0 1646 2714
0 1661 2794
0 1669 2860
0 1693 2950
0 1718 3042
0 1439 709
0 1456 742
0 1477 785
0 1485 818
0 1492 907
0 1492 1056
0 1489 1150
0 1497 1225
0 1501 1304
0 1509 1378
0 1520 1447
0 1537 1530
0 1542 1602
0 1542 1668
0 1555 1729
0 1563 1805
0 1580 1887
0 1603 1969
0 1624 2056
0 1647 2143
0 1640 2204
0 1629 2266
0 1665 2363
0 1711 2471
0 1725 2566
0 1737 2652
0 1767 2713
0 1803 2788
0 1823 2881
0 1835 2960
0 1859 3050
0 1884 3141
0 1616 815
0 1625 837
0 1642 869
0 1656 899
0 1661 946
0 1656 1093
0 1656 1229
0 1662 1306
0 1673 1387
0 1683 1467
0 1691 1533
0 1706 1612
0 1716 1686
0 1716 1751
0 1724 1825
0 1732 1900
0 1745 1978
0 1769 2060
0 1787 2143
0 1812 2234
0 1830 2316
0 1813 2375
0 1819 2455
0 1869 2563
0 1903 2666
0 1912 2757
0 1929 2829
0 1962 2887
0 1973 2955
0 1990 3047
0 2029 3153
0 2053 3244
0 1815 948
0 1815 956
0 1824 977
0 1849 1002
0 1860 1046
0 1844 1187
0 1839 1321
0 1839 1404
0 1847 1487
0 1863 1586
0 1873 1658
0 1881 1708
0 1891 1777
0 1891 1835
0 1898 1908
0 1915 1991
0 1927 2070
0 1944 2151
0 1959 2234
0 1970 2318
0 1995 2403
0 2013 2482
0 2007 2557
0 2019 2646
0 2062 2754
0 2094 2857
0 2102 2935
0 2119 3003
0 2124 3054
0 2130 3122
0 2186 3244
0 2227 3352
80 2004 1067
29 2004 1075
26 2005 1085
0 2026 1113
0 2047 1147
0 2037 1269
0 2024 1405
0 2024 1499
0 2024 1580
0 2036 1673
0 2047 1761
0 2054 1814
0 2066 1884
0 2068 1947
0 2072 2001
0 2088 2082
0 2112 2177
0 2129 2259
0 2141 2333
0 2149 2416
0 2164 2507
0 2189 2590
0 2205 2673
0 2205 2756
0 2215 2840
0 2256 2948
0 2271 3021
0 2279 3095
0 2301 3178
0 2301 3228
0 2339 3331
0 2396 3455
235 2183 1172
135 2183 1181
83 2184 1191
25 2201 1224
0 2219 1261
0 2219 1352
0 2211 1470
0 2211 1586
0 2211 1677
0 2211 1752
0 2219 1835
0 2219 1901
0 2229 1973
0 2246 2073
0 2252 2131
0 2260 2181
0 2284 2275
0 2317 2381
0 2329 2454
0 2337 2522
0 2351 2615
0 2368 2712
0 2387 2795
0 2401 2878
0 2401 2955
0 2411 3038
0 2426 3106
0 2434 3169
0 2471 3273
0 2497 3359
0 2521 3447
0 2560 3553
460 2365 1279
347 2378 1301
249 2379 1311
183 2391 1336
101 2407 1372
0 2410 1449
0 2410 1547
0 2410 1666
0 2408 1776
0 2406 1856
0 2411 1933
0 2415 2003
0 2415 2075
0 2429 2173
0 2438 2253
0 2446 2304
0 2454 2362
0 2486 2466
0 2514 2573
0 2522 2640
0 2531 2709
0 2547 2808
0 2564 2887
0 2580 2970
0 2585 3051
0 2585 3126
0 2591 3210
0 2600 3268
0 2618 3347
0 2660 3455
0 2672 3529
0 2698 3620
742 2547 1387
618 2572 1420
506 2586 1443
432 2595 1460
342 2606 1489
101 2614 1546
0 2618 1630
0 2618 1754
0 2616 1867
0 2607 1959
0 2610 2041
0 2627 2124
0 2631 2200
0 2631 2283
0 2637 2361
0 2637 2419
0 2645 2478
0 2653 2544
0 2680 2648
0 2704 2756
0 2713 2822
0 2721 2891
0 2738 2968
0 2754 3036
0 2759 3119
0 2759 3201
0 2765 3296
0 2774 3385
0 2782 3450
0 2801 3529
0 2804 3590
0 2813 3661
917 2720 1475
823 2729 1483
703 2753 1516
638 2761 1547
541 2770 1565
296 2778 1606
108 2786 1679
122 2790 1807
71 2792 1931
0 2789 2035
0 2781 2121
0 2790 2201
0 2807 2281
0 2811 2362
0 2811 2438
0 2811 2497
0 2815 2571
0 2823 2639
0 2827 2691
0 2850 2795
0 2865 2892
0 2873 2959
0 2877 3026
0 2893 3092
0 2902 3150
0 2902 3233
0 2904 3330
0 2912 3429
0 2926 3525
0 2934 3591
0 2934 3650
0 2934 3708
1025 2886 1550
950 2886 1542
861 2894 1550
803 2902 1591
715 2911 1623
466 2919 1647
274 2927 1704
307 2936 1836
270 2941 1964
71 2949 2089
0 2947 2187
0 2939 2262
0 2948 2339
0 2965 2413
0 2968 2487
0 2968 2554
0 2973 2629
0 2981 2719
0 2984 2774
0 2984 2815
0 2997 2909
0 3006 3000
0 3008 3067
0 3009 3133
0 3020 3187
0 3027 3241
0 3027 3338
0 3029 3438
0 3044 3544
0 3058 3641
0 3059 3700
0 3059 3758
1184 3029 1608
1137 3029 1622
1062 3030 1615
994 3038 1636
936 3045 1676
792 3049 1706
567 3059 1750
524 3071 1878
540 3075 1996
411 3076 2100
252 3084 2224
225 3082 2317
212 3077 2385
203 3089 2455
225 3102 2529
236 3103 2598
198 3103 2672
186 3110 2760
149 3118 2837
140 3119 2882
192 3119 2928
197 3127 3017
191 3135 3108
191 3135 3175
135 3136 3246
135 3144 3295
219 3151 3363
219 3151 3463
208 3160 3564
208 3177 3671
191 3189 3760
191 3189 3819
1366 3162 1657
1333 3162 1682
1286 3162 1697
1212 3171 1705
1143 3178 1726
1085 3178 1759
965 3183 1808
841 3200 1932
781 3208 2046
747 3199 2120
658 3201 2224
583 3209 2349
544 3210 2435
511 3210 2492
523 3218 2562
573 3226 2637
547 3228 2713
473 3228 2795
423 3235 2870
356 3243 2937
399 3244 2986
482 3244 3036
482 3252 3125
473 3260 3216
412 3260 3289
334 3260 3361
434 3269 3425
543 3276 3496
528 3283 3595
515 3293 3697
492 3310 3796
473 3322 3885
1579 3276 1719
1503 3282 1738
1470 3283 1762
1417 3297 1770
1341 3304 1781
1268 3304 1809
1212 3308 1847
1128 3324 1935
1027 3334 2054
994 3326 2145
951 3320 2239
879 3325 2367
820 3330 2472
787 3330 2536
780 3330 2587
823 3336 2652
826 3340 2730
760 3340 2811
732 3345 2894
680 3353 2964
679 3356 3025
757 3356 3076
773 3362 3142
764 3370 3233
780 3378 3312
697 3378 3386
646 3379 3460
770 3387 3527
796 3395 3610
780 3404 3710
829 3414 3791
805 3430 3890
1804 3383 1786
1712 3392 1803
1635 3400 1820
1594 3416 1829
1541 3429 1839
1458 3429 1864
1386 3432 1897
1336 3449 1954
1276 3459 2038
1243 3451 2146
1199 3445 2256
1133 3445 2388
1077 3447 2497
1044 3447 2572
1037 3447 2629
1062 3447 2670
1058 3448 2738
1018 3448 2820
997 3453 2902
1006 3461 2985
1020 3464 3050
1061 3464 3108
1071 3470 3175
1055 3478 3250
1070 3486 3328
1095 3495 3403
1032 3495 3478
986 3495 3552
1017 3503 3633
1029 3512 3718
1097 3520 3794
1153 3530 3873
1920 3491 1832
1843 3500 1829
1756 3508 1846
1726 3519 1867
1681 3533 1875
1603 3533 1888
1517 3535 1916
1437 3546 1964
1395 3558 2033
1371 3555 2136
1360 3552 2255
1342 3556 2392
1278 3556 2505
1235 3556 2583
1213 3556 2658
1226 3556 2711
1229 3556 2765
1196 3556 2842
1164 3561 2924
1164 3569 3007
1172 3567 3075
1207 3565 3133
1243 3571 3202
1233 3579 3277
1259 3582 3339
1285 3589 3413
1270 3597 3481
1212 3597 3555
1253 3591 3631
1269 3600 3714
1293 3608 3789
1368 3616 3863
2011 3599 1874
1937 3607 1865
1864 3616 1862
1839 3624 1887
1805 3632 1908
1730 3632 1916
1650 3634 1933
1550 3642 1974
1478 3649 2033
1462 3649 2132
1459 3651 2246
1493 3659 2388
1478 3663 2505
1419 3663 2588
1387 3663 2666
1379 3663 2741
1370 3663 2807
1354 3663 2872
1330 3668 2949
1305 3677 3032
1305 3675 3100
1313 3666 3158
1343 3670 3227
1376 3679 3302
1408 3681 3364
1450 3681 3423
1436 3689 3489
1411 3697 3555
1454 3690 3630
1510 3683 3706
1527 3691 3781
1550 3699 3855
2110 3700 1901
2079 3708 1914
2008 3716 1906
1983 3717 1911
