textures/luts/untitled.3dl
#Created by: Adobe Photoshop Export Color Lookup Plugin
#Description: ps_warm
0 205 409 614 818 1023
0 0 0
0 0 365
0 0 1277
0 0 2189
0 0 3101
0 0 4014
0 416 0
0 416 365
0 416 1277
0 416 2189
0 416 3101
0 416 4014
0 1455 0
0 1455 365
0 1455 1277
0 1455 2189
0 1455 3101
0 1455 4014
0 2494 0
0 2494 365
0 2494 1277
0 2494 2189
0 2494 3101
0 2494 4014
0 3534 0
0 3534 365
0 3534 1277
0 3534 2189
0 3534 3101
0 3534 4014
0 4095 0
0 4095 365
0 4095 1277
0 4095 2189
0 4095 3101
0 4095 4014
466 0 0
466 0 365
466 0 1277
466 0 2189
466 0 3101
466 0 4014
466 416 0
466 416 365
466 416 1277
466 416 2189
466 416 3101
466 416 4014
466 1455 0
466 1455 365
466 1455 1277
466 1455 2189
466 1455 3101
466 1455 4014
466 2494 0
466 2494 365
466 2494 1277
466 2494 2189
466 2494 3101
466 2494 4014
466 3534 0
466 3534 365
466 3534 1277
466 3534 2189
466 3534 3101
466 3534 4014
466 4095 0
466 4095 365
466 4095 1277
466 4095 2189
466 4095 3101
466 4095 4014
1632 0 0
1632 0 365
1632 0 1277
1632 0 2189
1632 0 3101
1632 0 4014
1632 416 0
1632 416 365
1632 416 1277
1632 416 2189
1632 416 3101
1632 416 4014
1632 1455 0
1632 1455 365
1632 1455 1277
1632 1455 2189
1632 1455 3101
1632 1455 4014
1632 2494 0
1632 2494 365
1632 2494 1277
1632 2494 2189
1632 2494 3101
1632 2494 4014
1632 3534 0
1632 3534 365
1632 3534 1277
1632 3534 2189
1632 3534 3101
1632 3534 4014
1632 4095 0
1632 4095 365
1632 4095 1277
1632 4095 2189
1632 4095 3101
1632 4095 4014
2797 0 0
2797 0 365
2797 0 1277
2797 0 2189
2797 0 3101
2797 0 4014
2797 416 0
2797 416 365
2797 416 1277
2797 416 2189
2797 416 3101
2797 416 4014
2797 1455 0
2797 1455 365
2797 1455 1277
2797 1455 2189
2797 1455 3101
2797 1455 4014
2797 2494 0
2797 2494 365
2797 2494 1277
2797 2494 2189
2797 2494 3101
2797 2494 4014
2797 3534 0
2797 3534 365
2797 3534 1277
2797 3534 2189
2797 3534 3101
2797 3534 4014
2797 4095 0
2797 4095 365
2797 4095 1277
2797 4095 2189
2797 4095 3101
2797 4095 4014
3962 0 0
3962 0 365
3962 0 1277
3962 0 2189
3962 0 3101
3962 0 4014
3962 416 0
3962 416 365
3962 416 1277
3962 416 2189
3962 416 3101
3962 416 4014
3962 1455 0
3962 1455 365
3962 1455 1277
3962 1455 2189
3962 1455 3101
3962 1455 4014
3962 2494 0
3962 2494 365
3962 2494 1277
3962 2494 2189
3962 2494 3101
3962 2494 4014
3962 3534 0
3962 3534 365
3962 3534 1277
3962 3534 2189
3962 3534 3101
3962 3534 4014
3962 4095 0
3962 4095 365
3962 4095 1277
3962 4095 2189
3962 4095 3101
3962 4095 4014
4095 0 0
4095 0 365
4095 0 1277
4095 0 2189
4095 0 3101
4095 0 4014
4095 416 0
4095 416 365
4095 416 1277
4095 416 2189
4095 416 3101
4095 416 4014
4095 1455 0
4095 1455 365
4095 1455 1277
4095 1455 2189
4095 1455 3101
4095 1455 4014
4095 2494 0
4095 2494 365
4095 2494 1277
4095 2494 2189
4095 2494 3101
4095 2494 4014
4095 3534 0
4095 3534 365
4095 3534 1277
4095 3534 2189
4095 3534 3101
4095 3534 4014
4095 4095 0
4095 4095 365
4095 4095 1277
4095 4095 2189
4095 4095 3101
4095 4095 4014
