textures/luts/untitled.3dl
#Created by: Adobe Photoshop Export Color Lookup Plugin
#Description: ps_warm
0 68 136 205 273 341 409 477 546 614 682 750 818 887 955 1023
0 0 0
0 0 0
0 0 61
0 0 365
0 0 669
0 0 973
0 0 1277
0 0 1581
0 0 1885
0 0 2189
0 0 2493
0 0 2797
0 0 3101
0 0 3405
0 0 3709
0 0 4014
0 0 0
0 0 0
0 0 61
0 0 365
0 0 669
0 0 973
0 0 1277
0 0 1581
0 0 1885
0 0 2189
0 0 2493
0 0 2797
0 0 3101
0 0 3405
0 0 3709
0 0 4014
0 69 0
0 69 0
0 69 61
0 69 365
0 69 669
0 69 973
0 69 1277
0 69 1581
0 69 1885
0 69 2189
0 69 2493
0 69 2797
0 69 3101
0 69 3405
0 69 3709
0 69 4014
0 416 0
0 416 0
0 416 61
0 416 365
0 416 669
0 416 973
0 416 1277
0 416 1581
0 416 1885
0 416 2189
0 416 2493
0 416 2797
0 416 3101
0 416 3405
0 416 3709
0 416 4014
0 762 0
0 762 0
0 762 61
0 762 365
0 762 669
0 762 973
0 762 1277
0 762 1581
0 762 1885
0 762 2189
0 762 2493
0 762 2797
0 762 3101
0 762 3405
0 762 3709
0 762 4014
0 1109 0
0 1109 0
0 1109 61
0 1109 365
0 1109 669
0 1109 973
0 1109 1277
0 1109 1581
0 1109 1885
0 1109 2189
0 1109 2493
0 1109 2797
0 1109 3101
0 1109 3405
0 1109 3709
0 1109 4014
0 1455 0
0 1455 0
0 1455 61
0 1455 365
0 1455 669
0 1455 973
0 1455 1277
0 1455 1581
0 1455 1885
0 1455 2189
0 1455 2493
0 1455 2797
0 1455 3101
0 1455 3405
0 1455 3709
0 1455 4014
0 1801 0
0 1801 0
0 1801 61
0 1801 365
0 1801 669
0 1801 973
0 1801 1277
0 1801 1581
0 1801 1885
0 1801 2189
0 1801 2493
0 1801 2797
0 1801 3101
0 1801 3405
0 1801 3709
0 1801 4014
0 2148 0
0 2148 0
0 2148 61
0 2148 365
0 2148 669
0 2148 973
0 2148 1277
0 2148 1581
0 2148 1885
0 2148 2189
0 2148 2493
0 2148 2797
0 2148 3101
0 2148 3405
0 2148 3709
0 2148 4014
0 2494 0
0 2494 0
0 2494 61
0 2494 365
0 2494 669
0 2494 973
0 2494 1277
0 2494 1581
0 2494 1885
0 2494 2189
0 2494 2493
0 2494 2797
0 2494 3101
0 2494 3405
0 2494 3709
0 2494 4014
0 2841 0
0 2841 0
0 2841 61
0 2841 365
0 2841 669
0 2841 973
0 2841 1277
0 2841 1581
0 2841 1885
0 2841 2189
0 2841 2493
0 2841 2797
0 2841 3101
0 2841 3405
0 2841 3709
0 2841 4014
0 3187 0
0 3187 0
0 3187 61
0 3187 365
0 3187 669
0 3187 973
0 3187 1277
0 3187 1581
0 3187 1885
0 3187 2189
0 3187 2493
0 3187 2797
0 3187 3101
0 3187 3405
0 3187 3709
0 3187 4014
0 3534 0
0 3534 0
0 3534 61
0 3534 365
0 3534 669
0 3534 973
0 3534 1277
0 3534 1581
0 3534 1885
0 3534 2189
0 3534 2493
0 3534 2797
0 3534 3101
0 3534 3405
0 3534 3709
0 3534 4014
0 3880 0
0 3880 0
0 3880 61
0 3880 365
0 3880 669
0 3880 973
0 3880 1277
0 3880 1581
0 3880 1885
0 3880 2189
0 3880 2493
0 3880 2797
0 3880 3101
0 3880 3405
0 3880 3709
0 3880 4014
0 4095 0
0 4095 0
0 4095 61
0 4095 365
0 4095 669
0 4095 973
0 4095 1277
0 4095 1581
0 4095 1885
0 4095 2189
0 4095 2493
0 4095 2797
0 4095 3101
0 4095 3405
0 4095 3709
0 4095 4014
0 4095 0
0 4095 0
0 4095 61
0 4095 365
0 4095 669
0 4095 973
0 4095 1277
0 4095 1581
0 4095 1885
0 4095 2189
0 4095 2493
0 4095 2797
0 4095 3101
0 4095 3405
0 4095 3709
0 4095 4014
0 0 0
0 0 0
0 0 61
0 0 365
0 0 669
0 0 973
0 0 1277
0 0 1581
0 0 1885
0 0 2189
0 0 2493
0 0 2797
0 0 3101
0 0 3405
0 0 3709
0 0 4014
0 0 0
0 0 0
0 0 61
0 0 365
0 0 669
0 0 973
0 0 1277
0 0 1581
0 0 1885
0 0 2189
0 0 2493
0 0 2797
0 0 3101
0 0 3405
0 0 3709
0 0 4014
0 69 0
0 69 0
0 69 61
0 69 365
0 69 669
0 69 973
0 69 1277
0 69 1581
0 69 1885
0 69 2189
0 69 2493
0 69 2797
0 69 3101
0 69 3405
0 69 3709
0 69 4014
0 416 0
0 416 0
0 416 61
0 416 365
0 416 669
0 416 973
0 416 1277
0 416 1581
0 416 1885
0 416 2189
0 416 2493
0 416 2797
0 416 3101
0 416 3405
0 416 3709
0 416 4014
0 762 0
0 762 0
0 762 61
0 762 365
0 762 669
0 762 973
0 762 1277
0 762 1581
0 762 1885
0 762 2189
0 762 2493
0 762 2797
0 762 3101
0 762 3405
0 762 3709
0 762 4014
0 1109 0
0 1109 0
0 1109 61
0 1109 365
0 1109 669
0 1109 973
0 1109 1277
0 1109 1581
0 1109 1885
0 1109 2189
0 1109 2493
0 1109 2797
0 1109 3101
0 1109 3405
0 1109 3709
0 1109 4014
0 1455 0
0 1455 0
0 1455 61
0 1455 365
0 1455 669
0 1455 973
0 1455 1277
0 1455 1581
0 1455 1885
0 1455 2189
0 1455 2493
0 1455 2797
0 1455 3101
0 1455 3405
0 1455 3709
0 1455 4014
0 1801 0
0 1801 0
0 1801 61
0 1801 365
0 1801 669
0 1801 973
0 1801 1277
0 1801 1581
0 1801 1885
0 1801 2189
0 1801 2493
0 1801 2797
0 1801 3101
0 1801 3405
0 1801 3709
0 1801 4014
0 2148 0
0 2148 0
0 2148 61
0 2148 365
0 2148 669
0 2148 973
0 2148 1277
0 2148 1581
0 2148 1885
0 2148 2189
0 2148 2493
0 2148 2797
0 2148 3101
0 2148 3405
0 2148 3709
0 2148 4014
0 2494 0
0 2494 0
0 2494 61
0 2494 365
0 2494 669
0 2494 973
0 2494 1277
0 2494 1581
0 2494 1885
0 2494 2189
0 2494 2493
0 2494 2797
0 2494 3101
0 2494 3405
0 2494 3709
0 2494 4014
0 2841 0
0 2841 0
0 2841 61
0 2841 365
0 2841 669
0 2841 973
0 2841 1277
0 2841 1581
0 2841 1885
0 2841 2189
0 2841 2493
0 2841 2797
0 2841 3101
0 2841 3405
0 2841 3709
0 2841 4014
0 3187 0
0 3187 0
0 3187 61
0 3187 365
0 3187 669
0 3187 973
0 3187 1277
0 3187 1581
0 3187 1885
0 3187 2189
0 3187 2493
0 3187 2797
0 3187 3101
0 3187 3405
0 3187 3709
0 3187 4014
0 3534 0
0 3534 0
0 3534 61
0 3534 365
0 3534 669
0 3534 973
0 3534 1277
0 3534 1581
0 3534 1885
0 3534 2189
0 3534 2493
0 3534 2797
0 3534 3101
0 3534 3405
0 3534 3709
0 3534 4014
0 3880 0
0 3880 0
0 3880 61
0 3880 365
0 3880 669
0 3880 973
0 3880 1277
0 3880 1581
0 3880 1885
0 3880 2189
0 3880 2493
0 3880 2797
0 3880 3101
0 3880 3405
0 3880 3709
0 3880 4014
0 4095 0
0 4095 0
0 4095 61
0 4095 365
0 4095 669
0 4095 973
0 4095 1277
0 4095 1581
0 4095 1885
0 4095 2189
0 4095 2493
0 4095 2797
0 4095 3101
0 4095 3405
0 4095 3709
0 4095 4014
0 4095 0
0 4095 0
0 4095 61
0 4095 365
0 4095 669
0 4095 973
0 4095 1277
0 4095 1581
0 4095 1885
0 4095 2189
0 4095 2493
0 4095 2797
0 4095 3101
0 4095 3405
0 4095 3709
0 4095 4014
78 0 0
78 0 0
78 0 61
78 0 365
78 0 669
78 0 973
78 0 1277
78 0 1581
78 0 1885
78 0 2189
78 0 2493
78 0 2797
78 0 3101
78 0 3405
78 0 3709
78 0 4014
78 0 0
78 0 0
78 0 61
78 0 365
78 0 669
78 0 973
78 0 1277
78 0 1581
78 0 1885
78 0 2189
78 0 2493
78 0 2797
78 0 3101
78 0 3405
78 0 3709
78 0 4014
78 69 0
78 69 0
78 69 61
78 69 365
78 69 669
78 69 973
78 69 1277
78 69 1581
78 69 1885
78 69 2189
78 69 2493
78 69 2797
78 69 3101
78 69 3405
78 69 3709
78 69 4014
78 416 0
78 416 0
78 416 61
78 416 365
78 416 669
78 416 973
78 416 1277
78 416 1581
78 416 1885
78 416 2189
78 416 2493
78 416 2797
78 416 3101
78 416 3405
78 416 3709
78 416 4014
78 762 0
78 762 0
78 762 61
78 762 365
78 762 669
78 762 973
78 762 1277
78 762 1581
78 762 1885
78 762 2189
78 762 2493
78 762 2797
78 762 3101
78 762 3405
78 762 3709
78 762 4014
78 1109 0
78 1109 0
78 1109 61
78 1109 365
78 1109 669
78 1109 973
78 1109 1277
78 1109 1581
78 1109 1885
78 1109 2189
78 1109 2493
78 1109 2797
78 1109 3101
78 1109 3405
78 1109 3709
78 1109 4014
78 1455 0
78 1455 0
78 1455 61
78 1455 365
78 1455 669
78 1455 973
78 1455 1277
78 1455 1581
78 1455 1885
78 1455 2189
78 1455 2493
78 1455 2797
78 1455 3101
78 1455 3405
78 1455 3709
78 1455 4014
78 1801 0
78 1801 0
78 1801 61
78 1801 365
78 1801 669
78 1801 973
78 1801 1277
78 1801 1581
78 1801 1885
78 1801 2189
78 1801 2493
78 1801 2797
78 1801 3101
78 1801 3405
78 1801 3709
78 1801 4014
78 2148 0
78 2148 0
78 2148 61
78 2148 365
78 2148 669
78 2148 973
78 2148 1277
78 2148 1581
78 2148 1885
78 2148 2189
78 2148 2493
78 2148 2797
78 2148 3101
78 2148 3405
78 2148 3709
78 2148 4014
78 2494 0
78 2494 0
78 2494 61
78 2494 365
78 2494 669
78 2494 973
78 2494 1277
78 2494 1581
78 2494 1885
78 2494 2189
78 2494 2493
78 2494 2797
78 2494 3101
78 2494 3405
78 2494 3709
78 2494 4014
78 2841 0
78 2841 0
78 2841 61
78 2841 365
78 2841 669
78 2841 973
78 2841 1277
78 2841 1581
78 2841 1885
78 2841 2189
78 2841 2493
78 2841 2797
78 2841 3101
78 2841 3405
78 2841 3709
78 2841 4014
78 3187 0
78 3187 0
78 3187 61
78 3187 365
78 3187 669
78 3187 973
78 3187 1277
78 3187 1581
78 3187 1885
78 3187 2189
78 3187 2493
78 3187 2797
78 3187 3101
78 3187 3405
78 3187 3709
78 3187 4014
78 3534 0
78 3534 0
78 3534 61
78 3534 365
78 3534 669
78 3534 973
78 3534 1277
78 3534 1581
78 3534 1885
78 3534 2189
78 3534 2493
78 3534 2797
78 3534 3101
78 3534 3405
78 3534 3709
78 3534 4014
78 3880 0
78 3880 0
78 3880 61
78 3880 365
78 3880 669
78 3880 973
78 3880 1277
78 3880 1581
78 3880 1885
78 3880 2189
78 3880 2493
78 3880 2797
78 3880 3101
78 3880 3405
78 3880 3709
78 3880 4014
78 4095 0
78 4095 0
78 4095 61
78 4095 365
78 4095 669
78 4095 973
78 4095 1277
78 4095 1581
78 4095 1885
78 4095 2189
78 4095 2493
78 4095 2797
78 4095 3101
78 4095 3405
78 4095 3709
78 4095 4014
78 4095 0
78 4095 0
78 4095 61
78 4095 365
78 4095 669
78 4095 973
78 4095 1277
78 4095 1581
78 4095 1885
78 4095 2189
78 4095 2493
78 4095 2797
78 4095 3101
78 4095 3405
78 4095 3709
78 4095 4014
466 0 0
466 0 0
466 0 61
466 0 365
466 0 669
466 0 973
466 0 1277
466 0 1581
466 0 1885
466 0 2189
466 0 2493
466 0 2797
466 0 3101
466 0 3405
466 0 3709
466 0 4014
466 0 0
466 0 0
466 0 61
466 0 365
466 0 669
466 0 973
466 0 1277
466 0 1581
466 0 1885
466 0 2189
466 0 2493
466 0 2797
466 0 3101
466 0 3405
466 0 3709
466 0 4014
466 69 0
466 69 0
466 69 61
466 69 365
466 69 669
466 69 973
466 69 1277
466 69 1581
466 69 1885
466 69 2189
466 69 2493
466 69 2797
466 69 3101
466 69 3405
466 69 3709
466 69 4014
466 416 0
466 416 0
466 416 61
466 416 365
466 416 669
466 416 973
466 416 1277
466 416 1581
466 416 1885
466 416 2189
466 416 2493
466 416 2797
466 416 3101
466 416 3405
466 416 3709
466 416 4014
466 762 0
466 762 0
466 762 61
466 762 365
466 762 669
466 762 973
466 762 1277
466 762 1581
466 762 1885
466 762 2189
466 762 2493
466 762 2797
466 762 3101
466 762 3405
466 762 3709
466 762 4014
466 1109 0
466 1109 0
466 1109 61
466 1109 365
466 1109 669
466 1109 973
466 1109 1277
466 1109 1581
466 1109 1885
466 1109 2189
466 1109 2493
466 1109 2797
466 1109 3101
466 1109 3405
466 1109 3709
466 1109 4014
466 1455 0
466 1455 0
466 1455 61
466 1455 365
466 1455 669
466 1455 973
466 1455 1277
466 1455 1581
466 1455 1885
466 1455 2189
466 1455 2493
466 1455 2797
466 1455 3101
466 1455 3405
466 1455 3709
466 1455 4014
466 1801 0
466 1801 0
466 1801 61
466 1801 365
466 1801 669
466 1801 973
466 1801 1277
466 1801 1581
466 1801 1885
466 1801 2189
466 1801 2493
466 1801 2797
466 1801 3101
466 1801 3405
466 1801 3709
466 1801 4014
466 2148 0
466 2148 0
466 2148 61
466 2148 365
